theme/essential/pix_plugins/assignfeedback/editpdf/stamp.svg

<!DOCTYPE svg PUBLIC "-//W3C//DTD SVG 1.1//EN" "http://www.w3.org/Graphics/SVG/1.1/DTD/svg11.dtd" [
	<!ENTITY ns_flows "http://ns.adobe.com/Flows/1.0/">
]><svg xmlns="http://www.w3.org/2000/svg" width="16" height="16" viewBox="0 0 16 16" preserveAspectRatio="xMinYMid meet" overflow="visible"><path d="M15 16h-14v-1h14v1zm-1-6h-4.8c-.1-.8-.2-1.6-.2-2.1 0-1.8 2-3.5 2-4.9 0-1.7-1.3-3-3-3s-3 1.3-3 3c0 1.4 1.9 3.2 2 4.9 0 .5 0 1.2-.1 2.1h-4.9c-1.1 0-2 .9-2 2v2h16v-2c0-1.1-.9-2-2-2z" fill="#999"/></svg>

<?xml version="1.0" encoding="utf-8"?>
<!-- Generator: Adobe Illustrator 15.1.0, SVG Export Plug-In  -->
<!DOCTYPE svg PUBLIC "-//W3C//DTD SVG 1.1//EN" "http://www.w3.org/Graphics/SVG/1.1/DTD/svg11.dtd" [
	<!ENTITY ns_flows "http://ns.adobe.com/Flows/1.0/">
]>
<svg version="1.1"
	 xmlns="http://www.w3.org/2000/svg" xmlns:xlink="http://www.w3.org/1999/xlink" xmlns:a="http://ns.adobe.com/AdobeSVGViewerExtensions/3.0/"
	 x="0px" y="0px" width="16px" height="16px" viewBox="0 0 16 16" style="overflow:visible;enable-background:new 0 0 16 16;"
	 xml:space="preserve" preserveAspectRatio="xMinYMid meet">
<defs>
</defs>
<path style="fill:#29a1c4;" d="M15,16H1v-1h14V16z M14,10H9.2C9.1,9.2,9,8.4,9,7.9c0-1.8,2-3.5,2-4.9c0-1.7-1.3-3-3-3S5,1.3,5,3
	c0,1.4,1.9,3.2,2,4.9c0,0.5,0,1.2-0.1,2.1H2c-1.1,0-2,0.9-2,2v2c0,0,0,0,0,0l16,0c0,0,0,0,0,0v-2C16,10.9,15.1,10,14,10z"/>
</svg>
